tenants/kidsweek/icons/channel_youtube.svg

<svg fill="none" height="32" viewBox="0 0 32 32" width="32" xmlns="http://www.w3.org/2000/svg" xmlns:xlink="http://www.w3.org/1999/xlink"><clipPath id="a"><path d="m0 0h32v32h-32z"/></clipPath><g clip-path="url(#a)"><circle cx="16" cy="16" fill="#e4003a" r="16"/><path d="m25.5821 11.4884c-.23-.8623-.9077-1.54133-1.7682-1.77179-1.5597-.41876-7.8139-.41876-7.8139-.41876s-6.25414 0-7.81387.41876c-.86048.23049-1.53819.90949-1.76821 1.77179-.41792 1.5628-.41792 4.8236-.41792 4.8236s0 3.2608.41792 4.8236c.23002.8623.90773 1.513 1.76821 1.7435 1.55973.4188 7.81387.4188 7.81387.4188s6.2541 0 7.8139-.4188c.8605-.2305 1.5382-.8812 1.7682-1.7435.4179-1.5628.4179-4.8236.4179-4.8236s0-3.2608-.4179-4.8236zm-11.6276 7.7841v-5.921l5.2273 2.9606z" fill="#fff"/></g></svg>

<svg width="32" height="32" viewBox="0 0 32 32" fill="none" xmlns="http://www.w3.org/2000/svg">
<g clip-path="url(#clip0_2137_28849)">
<circle cx="16" cy="16" r="16" fill="#E4003A"/>
<path d="M25.5821 11.4884C25.3521 10.6261 24.6744 9.94707 23.8139 9.71661C22.2542 9.29785 16 9.29785 16 9.29785C16 9.29785 9.74586 9.29785 8.18613 9.71661C7.32565 9.9471 6.64794 10.6261 6.41792 11.4884C6 13.0512 6 16.312 6 16.312C6 16.312 6 19.5728 6.41792 21.1356C6.64794 21.9979 7.32565 22.6486 8.18613 22.8791C9.74586 23.2979 16 23.2979 16 23.2979C16 23.2979 22.2541 23.2979 23.8139 22.8791C24.6744 22.6486 25.3521 21.9979 25.5821 21.1356C26 19.5728 26 16.312 26 16.312C26 16.312 26 13.0512 25.5821 11.4884ZM13.9545 19.2725V13.3515L19.1818 16.3121L13.9545 19.2725Z" fill="white"/>
</g>
<defs>
<clipPath id="clip0_2137_28849">
<rect width="32" height="32" fill="white"/>
</clipPath>
</defs>
</svg>
